X: 68
M:6/8
L:1/8
K:G
d/2c/2|BEE dEE|BAG FEF|DED FDF|ABc ded|
|:B|efe edB|e/2f/2ge fdB|ded dAF|DFA def|
1efe edB|ede g2 a|bag fga|bge e2:|
2edB def|gba gfe|fdB AdF|FEE E2:||

